X: 2027
T: LARGO LAW
R: Strathspey.
%R: strathspey
N: This is version 2, for ABC software that understands annotation positions.
B: James Kerr "Merry Melodies" v.2 p.6 #27
Z: 2016 John Chambers <jc:trillian.mit.edu>
M: C
L: 1/16
K: A
c2 |\
vAc3 vE3uF vA3vBuc3ue | vfa3 ve3uc BBB2 (B3c) |\
vAc3 vE3uF vA3vBuc3ue | fefg a2c2 AAA2 A2 ::\
ue2 |\
va3veuf3uc eee2 (a3e) |
vfa3 e3c BBB2 (B3"_2nd"[gc]) |\
[1 a3ef3c eee2 (a3e) | fa3 e3c AAA2 A2 :|\
[2 Ac3 E3F A3Bc3e | fefg a2c2 AAA2 A2 |]
